%
(1001)
(T1  D=3.14 CR=0 - ZMIN=-3 - flat end mill)
G90 G94
G17
G21

(Drill2)
M9
T1 M6
S8000 M3
G54
M9
G0 X139.925 Y193.591
Z15
Z7
G1 Z-3 F100
G0 Z7
Z15

(2D Contour2)
M9
X133.746 Y79.84
Z15
Z5
G1 Z2.6 F100
Z-1.286
G18 G2 X134.06 Z-1.6 I0.314
G1 X134.374
G17 G3 X134.688 Y80.154 J0.314
G1 Y81.475 F200
G2 X134.978 Y82.384 I1.57
X212.538 I38.78 J-27.55
X212.828 Y81.475 I-1.28 J-0.909
G1 Y77.834
G2 X211.258 Y76.263 I-1.57
G1 X207.828
Y33.403
X211.258
G2 X212.828 Y31.833 J-1.57
G1 Y28.192
G2 X212.538 Y27.283 I-1.57
X134.978 I-38.78 J27.55
X134.688 Y28.192 I1.28 J0.909
G1 Y31.833
G2 X136.258 Y33.403 I1.57
G1 X139.688
Y76.263
X136.258
G2 X134.688 Y77.834 J1.57
G1 Y80.154
G3 X134.374 Y80.468 I-0.314 F100
G1 X134.06
G18 G3 X133.746 Z-1.286 K0.314
G1 Y79.84
Z-2.686
G2 X134.06 Z-3 I0.314
G1 X134.374
G17 G3 X134.688 Y80.154 J0.314
G1 Y81.475 F200
G2 X134.978 Y82.384 I1.57
X212.538 I38.78 J-27.55
X212.828 Y81.475 I-1.28 J-0.909
G1 Y77.834
G2 X211.258 Y76.263 I-1.57
G1 X207.828
Y33.403
X211.258
G2 X212.828 Y31.833 J-1.57
G1 Y28.192
G2 X212.538 Y27.283 I-1.57
X134.978 I-38.78 J27.55
X134.688 Y28.192 I1.28 J0.909
G1 Y31.833
G2 X136.258 Y33.403 I1.57
G1 X139.688
Y76.263
X136.258
G2 X134.688 Y77.834 J1.57
G1 Y80.154
G3 X134.374 Y80.468 I-0.314 F100
G1 X134.06
G18 G3 X133.746 Z-2.686 K0.314
G1 Z-1.286
X122.049 Y67.218
X122.041 Y67.217 Z-1.356
X122.018 Y67.212 Z-1.422
X121.982 Y67.204 Z-1.482
X121.933 Y67.194 Z-1.531
X121.875 Y67.182 Z-1.569
X121.81 Y67.168 Z-1.592
X121.742 Y67.153 Z-1.6
X121.435 Y67.088
G17 G3 X121.193 Y66.716 I0.065 J-0.307
G2 X117.911 Y35.146 I-50.445 J-10.711 F200
G3 X121.513 Y24.375 I7.71 J-3.409
G2 X122.318 Y23.004 I-0.765 J-1.371
G1 Y11.004
G2 X115.748 Y4.434 I-6.57
G1 X103.748
G2 X102.377 Y5.239 J1.57
G3 X91.606 Y8.841 I-7.361 J-4.108
G2 X49.889 I-20.858 J47.164
G3 X39.119 Y5.239 I-3.41 J-7.71
G2 X37.748 Y4.434 I-1.371 J0.765
G1 X25.748
G2 X20.367 Y7.233 J6.57
X19.178 Y11.004 I5.381 J3.77
G1 Y23.004
G2 X19.983 Y24.375 I1.57
G3 X23.584 Y35.146 I-4.108 J7.361
G2 Y76.862 I47.164 J20.858
G3 X19.983 Y87.633 I-7.71 J3.41
G2 X19.178 Y89.004 I0.765 J1.371
G1 Y101.004
G2 X25.748 Y107.574 I6.57
G1 X37.748
G2 X39.119 Y106.769 J-1.57
G3 X49.889 Y103.168 I7.361 J4.108
G2 X91.606 I20.858 J-47.164
G3 X102.377 Y106.769 I3.41 J7.709
G2 X103.748 Y107.574 I1.371 J-0.765
G1 X115.748
G2 X122.318 Y101.004 J-6.57
G1 Y89.004
G2 X121.513 Y87.633 I-1.57
G3 X117.911 Y76.862 I4.108 J-7.362
G2 X121.193 Y66.716 I-47.163 J-20.858
G3 X121.565 Y66.474 I0.307 J0.065 F100
G1 X121.872 Y66.539
X121.94 Y66.553 Z-1.592
X122.005 Y66.567 Z-1.569
X122.064 Y66.58 Z-1.531
X122.112 Y66.59 Z-1.482
X122.149 Y66.598 Z-1.422
X122.172 Y66.603 Z-1.356
X122.179 Y66.604 Z-1.286
X122.049 Y67.218
Z-2.686
X122.041 Y67.217 Z-2.756
X122.018 Y67.212 Z-2.822
X121.982 Y67.204 Z-2.882
X121.933 Y67.194 Z-2.931
X121.875 Y67.182 Z-2.969
X121.81 Y67.168 Z-2.992
X121.742 Y67.153 Z-3
X121.435 Y67.088
G3 X121.193 Y66.716 I0.065 J-0.307
G2 X117.911 Y35.146 I-50.445 J-10.711 F200
G3 X121.513 Y24.375 I7.71 J-3.409
G2 X122.318 Y23.004 I-0.765 J-1.371
G1 Y11.004
G2 X115.748 Y4.434 I-6.57
G1 X103.748
G2 X102.377 Y5.239 J1.57
G3 X91.606 Y8.841 I-7.361 J-4.108
G2 X49.889 I-20.858 J47.164
G3 X39.119 Y5.239 I-3.41 J-7.71
G2 X37.748 Y4.434 I-1.371 J0.765
G1 X25.748
G2 X20.367 Y7.233 J6.57
X19.178 Y11.004 I5.381 J3.77
G1 Y23.004
G2 X19.983 Y24.375 I1.57
G3 X23.584 Y35.146 I-4.108 J7.361
G2 Y76.862 I47.164 J20.858
G3 X19.983 Y87.633 I-7.71 J3.41
G2 X19.178 Y89.004 I0.765 J1.371
G1 Y101.004
G2 X25.748 Y107.574 I6.57
G1 X37.748
G2 X39.119 Y106.769 J-1.57
G3 X49.889 Y103.168 I7.361 J4.108
G2 X91.606 I20.858 J-47.164
G3 X102.377 Y106.769 I3.41 J7.709
G2 X103.748 Y107.574 I1.371 J-0.765
G1 X115.748
G2 X122.318 Y101.004 J-6.57
G1 Y89.004
G2 X121.513 Y87.633 I-1.57
G3 X117.911 Y76.862 I4.108 J-7.362
G2 X121.193 Y66.716 I-47.163 J-20.858
G3 X121.565 Y66.474 I0.307 J0.065 F100
G1 X121.872 Y66.539
X121.94 Y66.553 Z-2.992
X122.005 Y66.567 Z-2.969
X122.064 Y66.58 Z-2.931
X122.112 Y66.59 Z-2.882
X122.149 Y66.598 Z-2.822
X122.172 Y66.603 Z-2.756
X122.179 Y66.604 Z-2.686
Z-1.286
X134.38 Y109.722
G19 G3 Y110.036 Z-1.6 J0.314
G1 Y110.35
G17 G3 X134.066 Y110.664 I-0.314
G1 X130.601 F200
G2 X129.031 Y112.234 J1.57
G1 Y120.664
X125.601
G2 X124.592 Y121.031 J1.57
G1 X112.59 Y131.103
G2 X110.242 Y136.136 I4.222 J5.034
G1 Y152.613
G2 X110.949 Y155.576 I6.57 J-0.001
G1 X131.848 Y196.922
G2 X142.511 Y201.936 I8.54 J-4.318
G1 X179.778 Y193.459
G2 X197.417 Y161.098 I-5.449 J-23.958
G1 X183.076 Y121.697
G2 X181.601 Y120.664 I-1.475 J0.537
G1 X178.171
Y112.234
G2 X176.601 Y110.664 I-1.57
G1 X134.066
G3 X133.752 Y110.35 J-0.314 F100
G1 Y110.036
G19 G2 Y109.722 Z-1.286 K0.314
G1 X134.38
Z-2.686
G3 Y110.036 Z-3 J0.314
G1 Y110.35
G17 G3 X134.066 Y110.664 I-0.314
G1 X130.601 F200
G2 X129.031 Y112.234 J1.57
G1 Y120.664
X125.601
G2 X124.592 Y121.031 J1.57
G1 X112.59 Y131.103
G2 X110.242 Y136.136 I4.222 J5.034
G1 Y152.613
G2 X110.949 Y155.576 I6.57 J-0.001
G1 X131.848 Y196.922
G2 X142.511 Y201.936 I8.54 J-4.318
G1 X179.778 Y193.459
G2 X197.417 Y161.098 I-5.449 J-23.958
G1 X183.076 Y121.697
G2 X181.601 Y120.664 I-1.475 J0.537
G1 X178.171
Y112.234
G2 X176.601 Y110.664 I-1.57
G1 X134.066
G3 X133.752 Y110.35 J-0.314 F100
G1 Y110.036
G19 G2 Y109.722 Z-2.686 K0.314
G0 Z5
X100.776 Y128.255
G1 Z2.6 F100
Z-1.286
X100.771 Y128.261 Z-1.356
X100.756 Y128.279 Z-1.422
X100.732 Y128.308 Z-1.482
X100.7 Y128.346 Z-1.531
X100.662 Y128.392 Z-1.569
X100.619 Y128.442 Z-1.592
X100.574 Y128.496 Z-1.6
X100.373 Y128.736
G17 G3 X99.93 Y128.775 I-0.241 J-0.202
G1 X91.551 Y121.743 F200
G2 X90.541 Y121.376 I-1.009 J1.203
G1 X87.111
Y112.946
G2 X85.541 Y111.376 I-1.57
G1 X39.541
G2 X37.971 Y112.946 J1.57
G1 Y121.376
X34.541
G2 X33.066 Y122.409 J1.57
G1 X18.725 Y161.81
G2 X55.906 Y190.34 I23.088 J8.403
G1 X103.099 Y157.295
G2 X105.9 Y151.914 I-3.768 J-5.382
G1 Y136.848
G2 X103.553 Y131.815 I-6.57
G1 X99.93 Y128.775
G3 X99.892 Y128.333 I0.202 J-0.241 F100
G1 X100.093 Y128.092
X100.138 Y128.039 Z-1.592
X100.181 Y127.988 Z-1.569
X100.219 Y127.942 Z-1.531
X100.251 Y127.904 Z-1.482
X100.275 Y127.876 Z-1.422
X100.29 Y127.858 Z-1.356
X100.295 Y127.852 Z-1.286
X100.776 Y128.255
Z-2.686
X100.771 Y128.261 Z-2.756
X100.756 Y128.279 Z-2.822
X100.732 Y128.308 Z-2.882
X100.7 Y128.346 Z-2.931
X100.662 Y128.392 Z-2.969
X100.619 Y128.442 Z-2.992
X100.574 Y128.496 Z-3
X100.373 Y128.736
G3 X99.93 Y128.775 I-0.241 J-0.202
G1 X91.551 Y121.743 F200
G2 X90.541 Y121.376 I-1.009 J1.203
G1 X87.111
Y112.946
G2 X85.541 Y111.376 I-1.57
G1 X39.541
G2 X37.971 Y112.946 J1.57
G1 Y121.376
X34.541
G2 X33.066 Y122.409 J1.57
G1 X18.725 Y161.81
G2 X55.906 Y190.34 I23.088 J8.403
G1 X103.099 Y157.295
G2 X105.9 Y151.914 I-3.768 J-5.382
G1 Y136.848
G2 X103.553 Y131.815 I-6.57
G1 X99.93 Y128.775
G3 X99.892 Y128.333 I0.202 J-0.241 F100
G1 X100.093 Y128.092
X100.138 Y128.039 Z-2.992
X100.181 Y127.988 Z-2.969
X100.219 Y127.942 Z-2.931
X100.251 Y127.904 Z-2.882
X100.275 Y127.876 Z-2.822
X100.29 Y127.858 Z-2.756
X100.295 Y127.852 Z-2.686
G0 Z5
X217.543 Y68.986
G1 Z2.6 F100
Z-1.286
X217.55 Y68.983 Z-1.356
X217.572 Y68.974 Z-1.422
X217.606 Y68.96 Z-1.482
X217.652 Y68.941 Z-1.531
X217.708 Y68.919 Z-1.569
X217.769 Y68.894 Z-1.592
X217.834 Y68.867 Z-1.6
X218.124 Y68.748
G3 X218.534 Y68.919 I0.119 J0.291
G2 X246.025 Y78.151 I17.737 J-7.271 F200
G3 X251.455 Y76.356 I6.833 J11.562
G1 X291.376 Y72.16
G2 Y51.136 I-1.105 J-10.512
G1 X251.455 Y46.94
G3 X246.025 Y45.145 I1.403 J-13.357
G2 X218.534 Y68.919 I-9.754 J16.503
G3 X218.362 Y69.329 I-0.291 J0.119 F100
G1 X218.072 Y69.448
X218.007 Y69.475 Z-1.592
X217.946 Y69.5 Z-1.569
X217.891 Y69.522 Z-1.531
X217.845 Y69.541 Z-1.482
X217.81 Y69.556 Z-1.422
X217.789 Y69.564 Z-1.356
X217.781 Y69.567 Z-1.286
X217.543 Y68.986
Z-2.686
X217.55 Y68.983 Z-2.756
X217.572 Y68.974 Z-2.822
X217.606 Y68.96 Z-2.882
X217.652 Y68.941 Z-2.931
X217.708 Y68.919 Z-2.969
X217.769 Y68.894 Z-2.992
X217.834 Y68.867 Z-3
X218.124 Y68.748
G3 X218.534 Y68.919 I0.119 J0.291
G2 X246.025 Y78.151 I17.737 J-7.271 F200
G3 X251.455 Y76.356 I6.833 J11.562
G1 X291.376 Y72.16
G2 Y51.136 I-1.105 J-10.512
G1 X251.455 Y46.94
G3 X246.025 Y45.145 I1.403 J-13.357
G2 X218.534 Y68.919 I-9.754 J16.503
G3 X218.362 Y69.329 I-0.291 J0.119 F100
G1 X218.072 Y69.448
X218.007 Y69.475 Z-2.992
X217.946 Y69.5 Z-2.969
X217.891 Y69.522 Z-2.931
X217.845 Y69.541 Z-2.882
X217.81 Y69.556 Z-2.822
X217.789 Y69.564 Z-2.756
X217.781 Y69.567 Z-2.686
G0 Z5
X223.187 Y32.996
G1 Z2.6 F100
Z-1.286
X223.192 Y32.99 Z-1.356
X223.206 Y32.972 Z-1.422
X223.228 Y32.942 Z-1.482
X223.259 Y32.902 Z-1.531
X223.295 Y32.855 Z-1.569
X223.335 Y32.802 Z-1.592
X223.377 Y32.747 Z-1.6
X223.568 Y32.497
G3 X224.008 Y32.438 I0.25 J0.19
G2 X229.311 Y34.544 I6.408 J-8.406 F200
G1 X269.232 Y38.74
G3 X274.661 Y40.535 I-1.404 J13.356
G2 X282.509 Y43.108 I9.756 J-16.503
X303.586 Y24.032 I1.907 J-19.076
X274.661 Y7.529 I-19.17
G3 X269.232 Y9.324 I-6.834 J-11.561
G1 X229.311 Y13.52
G2 X224.008 Y32.438 I1.105 J10.512
G3 X224.067 Y32.878 I-0.19 J0.25 F100
G1 X223.877 Y33.127
X223.834 Y33.183 Z-1.592
X223.794 Y33.236 Z-1.569
X223.758 Y33.283 Z-1.531
X223.728 Y33.323 Z-1.482
X223.705 Y33.352 Z-1.422
X223.691 Y33.371 Z-1.356
X223.686 Y33.377 Z-1.286
X223.187 Y32.996
Z-2.686
X223.192 Y32.99 Z-2.756
X223.206 Y32.972 Z-2.822
X223.228 Y32.942 Z-2.882
X223.259 Y32.902 Z-2.931
X223.295 Y32.855 Z-2.969
X223.335 Y32.802 Z-2.992
X223.377 Y32.747 Z-3
X223.568 Y32.497
G3 X224.008 Y32.438 I0.25 J0.19
G2 X229.311 Y34.544 I6.408 J-8.406 F200
G1 X269.232 Y38.74
G3 X274.661 Y40.535 I-1.404 J13.356
G2 X282.509 Y43.108 I9.756 J-16.503
X303.586 Y24.032 I1.907 J-19.076
X274.661 Y7.529 I-19.17
G3 X269.232 Y9.324 I-6.834 J-11.561
G1 X229.311 Y13.52
G2 X224.008 Y32.438 I1.105 J10.512
G3 X224.067 Y32.878 I-0.19 J0.25 F100
G1 X223.877 Y33.127
X223.834 Y33.183 Z-2.992
X223.794 Y33.236 Z-2.969
X223.758 Y33.283 Z-2.931
X223.728 Y33.323 Z-2.882
X223.705 Y33.352 Z-2.822
X223.691 Y33.371 Z-2.756
X223.686 Y33.377 Z-2.686
G0 Z15
M9
G28 G91 X0 Y0
M30
%
