%
(1001)
(T2  D=1.5 CR=0 - ZMIN=-3 - flat end mill)
G90 G94
G17
G21

(2D Contour4)
M9
T2 M6
S8000 M3
G54
M9
G0 X204.102 Y69.012
Z15
Z5
G1 Z2.5 F100
Z-1.35
X204.101 Y69.005 Z-1.396
X204.098 Y68.983 Z-1.438
X204.094 Y68.95 Z-1.471
X204.089 Y68.909 Z-1.493
X204.083 Y68.863 Z-1.5
X204.065 Y68.714
G3 X204.195 Y68.547 I0.149 J-0.018
G2 X201.851 Y45.17 I-1.446 J-11.661 F150
G3 X57.754 Y38.808 I-45.808 J-597.496
G2 X36.515 Y55.06 I-3.006 J18.077
X54.111 Y75.199 I18.234 J1.825
X184.605 Y70.77 I33.074 J-950.174
X204.195 Y68.547 I-97.421 J-945.745
G3 X204.363 Y68.677 I0.018 J0.149 F100
G1 X204.381 Y68.826
X204.387 Y68.872 Z-1.493
X204.392 Y68.914 Z-1.471
X204.396 Y68.946 Z-1.438
X204.399 Y68.968 Z-1.396
X204.4 Y68.975 Z-1.35
X204.102 Y69.012
Z-2.85
X204.101 Y69.005 Z-2.896
X204.098 Y68.983 Z-2.938
X204.094 Y68.95 Z-2.971
X204.089 Y68.909 Z-2.993
X204.083 Y68.863 Z-3
X204.065 Y68.714
G3 X204.195 Y68.547 I0.149 J-0.018
G2 X201.851 Y45.17 I-1.446 J-11.661 F150
G3 X57.754 Y38.808 I-45.808 J-597.496
G2 X36.515 Y55.06 I-3.006 J18.077
X54.111 Y75.199 I18.234 J1.825
X184.605 Y70.77 I33.074 J-950.174
X204.195 Y68.547 I-97.421 J-945.745
G3 X204.363 Y68.677 I0.018 J0.149 F100
G1 X204.381 Y68.826
X204.387 Y68.872 Z-2.993
X204.392 Y68.914 Z-2.971
X204.396 Y68.946 Z-2.938
X204.399 Y68.968 Z-2.896
X204.4 Y68.975 Z-2.85
Z-1.35
X202.431 Y83.621
X202.425 Y83.626 Z-1.396
X202.408 Y83.638 Z-1.438
X202.381 Y83.657 Z-1.471
X202.347 Y83.681 Z-1.493
X202.309 Y83.708 Z-1.5
X202.186 Y83.795
G3 X201.977 Y83.76 I-0.087 J-0.122
G2 X184.197 Y76.267 I-14.94 J10.611 F150
G3 X40.048 Y81.314 I-92.888 J-592.007
G2 X37.491 Y104.667 I-1.005 J11.707
X187.507 Y112.69 I125.62 J-942.414
X201.977 Y83.76 I-0.47 J-18.319
G3 X202.013 Y83.551 I0.122 J-0.087 F100
G1 X202.135 Y83.464
X202.173 Y83.437 Z-1.493
X202.207 Y83.413 Z-1.471
X202.234 Y83.393 Z-1.438
X202.251 Y83.381 Z-1.396
X202.257 Y83.377 Z-1.35
X202.431 Y83.621
Z-2.85
X202.425 Y83.626 Z-2.896
X202.408 Y83.638 Z-2.938
X202.381 Y83.657 Z-2.971
X202.347 Y83.681 Z-2.993
X202.309 Y83.708 Z-3
X202.186 Y83.795
G3 X201.977 Y83.76 I-0.087 J-0.122
G2 X184.197 Y76.267 I-14.94 J10.611 F150
G3 X40.048 Y81.314 I-92.888 J-592.007
G2 X37.491 Y104.667 I-1.005 J11.707
X187.507 Y112.69 I125.62 J-942.414
X201.977 Y83.76 I-0.47 J-18.319
G3 X202.013 Y83.551 I0.122 J-0.087 F100
G1 X202.135 Y83.464
X202.173 Y83.437 Z-2.993
X202.207 Y83.413 Z-2.971
X202.234 Y83.393 Z-2.938
X202.251 Y83.381 Z-2.896
X202.257 Y83.377 Z-2.85
Z-1.35
X220.522 Y77.551
G18 G2 X220.672 Z-1.5 I0.15
G1 X220.822
G17 G3 X220.972 Y77.701 J0.15
G1 Y102.715 F150
G2 X232.152 Y112.36 I9.75
X240.053 Y99.885 I-1.43 J-9.645
G3 X240.212 Y94.038 I8.851 J-2.685
G1 X244.176 Y83.147
G3 X252.868 Y77.061 I8.692 J3.164
G1 X254.812
G2 Y59.561 J-8.75
G1 X245.694
G3 X237.002 Y53.474 J-9.25
G1 X234.065 Y45.406
G2 X220.972 Y47.715 I-6.343 J2.309
G1 Y77.701
G3 X220.822 Y77.851 I-0.15 F100
G1 X220.672
G18 G3 X220.522 Z-1.35 K0.15
G1 Y77.551
Z-2.85
G2 X220.672 Z-3 I0.15
G1 X220.822
G17 G3 X220.972 Y77.701 J0.15
G1 Y102.715 F150
G2 X232.152 Y112.36 I9.75
X240.053 Y99.885 I-1.43 J-9.645
G3 X240.212 Y94.038 I8.851 J-2.685
G1 X244.176 Y83.147
G3 X252.868 Y77.061 I8.692 J3.164
G1 X254.812
G2 Y59.561 J-8.75
G1 X245.694
G3 X237.002 Y53.474 J-9.25
G1 X234.065 Y45.406
G2 X220.972 Y47.715 I-6.343 J2.309
G1 Y77.701
G3 X220.822 Y77.851 I-0.15 F100
G1 X220.672
G18 G3 X220.522 Z-2.85 K0.15
G0 Z5
X248.875 Y47.117
G1 Z2.5 F100
Z-1.35
X248.88 Y47.112 Z-1.396
X248.896 Y47.097 Z-1.438
X248.92 Y47.074 Z-1.471
X248.95 Y47.046 Z-1.493
X248.984 Y47.014 Z-1.5
X249.093 Y46.911
G17 G3 X249.305 Y46.917 I0.103 J0.109
G2 X255.672 Y49.665 I6.367 J-6.002 F150
G1 X257.615
G3 X266.307 Y55.751 J9.25
G1 X270.271 Y66.642
G3 X270.431 Y72.49 I-8.692 J3.164
G2 X278.332 Y84.964 I9.331 J2.829
X289.512 Y75.319 I1.43 J-9.645
G1 Y20.319
G2 X276.419 Y18.011 I-6.75
G1 X273.482 Y26.079
G3 X264.79 Y32.165 I-8.692 J-3.164
G1 X255.672
G2 X249.305 Y46.917 J8.75
G3 X249.299 Y47.129 I-0.109 J0.103 F100
G1 X249.19 Y47.232
X249.156 Y47.264 Z-1.493
X249.126 Y47.293 Z-1.471
X249.102 Y47.315 Z-1.438
X249.086 Y47.33 Z-1.396
X249.081 Y47.335 Z-1.35
X248.875 Y47.117
Z-2.85
X248.88 Y47.112 Z-2.896
X248.896 Y47.097 Z-2.938
X248.92 Y47.074 Z-2.971
X248.95 Y47.046 Z-2.993
X248.984 Y47.014 Z-3
X249.093 Y46.911
G3 X249.305 Y46.917 I0.103 J0.109
G2 X255.672 Y49.665 I6.367 J-6.002 F150
G1 X257.615
G3 X266.307 Y55.751 J9.25
G1 X270.271 Y66.642
G3 X270.431 Y72.49 I-8.692 J3.164
G2 X278.332 Y84.964 I9.331 J2.829
X289.512 Y75.319 I1.43 J-9.645
G1 Y20.319
G2 X276.419 Y18.011 I-6.75
G1 X273.482 Y26.079
G3 X264.79 Y32.165 I-8.692 J-3.164
G1 X255.672
G2 X249.305 Y46.917 J8.75
G3 X249.299 Y47.129 I-0.109 J0.103 F100
G1 X249.19 Y47.232
X249.156 Y47.264 Z-2.993
X249.126 Y47.293 Z-2.971
X249.102 Y47.315 Z-2.938
X249.086 Y47.33 Z-2.896
X249.081 Y47.335 Z-2.85
G0 Z15
M9
G28 G91 X0 Y0
M30
%
