%
(1001)
(T2  D=1.5 CR=0 - ZMIN=-3 - flat end mill)
G90 G94
G17
G21

(2D Contour6)
M9
T2 M6
S8000 M3
G54
M9
G0 X280.113 Y135.136
Z15
Z5
G1 Z2.5 F100
Z-1.35
G18 G2 X280.263 Z-1.5 I0.15
G1 X280.413
G17 G3 X280.563 Y135.286 J0.15
G1 Y157.948 F150
G3 X276.469 Y159.239 I-2.25
G1 X267.577 Y146.54
G3 X267.235 Y143.436 I2.663 J-1.864
G2 Y135.999 I-9.012 J-3.719
G3 X267.577 Y132.895 I3.005 J-1.24
G1 X276.469 Y120.195
G3 X280.563 Y121.486 I1.843 J1.291
G1 Y135.286
G3 X280.413 Y135.436 I-0.15 F100
G1 X280.263
G18 G3 X280.113 Z-1.35 K0.15
G1 Y135.136
Z-2.85
G2 X280.263 Z-3 I0.15
G1 X280.413
G17 G3 X280.563 Y135.286 J0.15
G1 Y157.948 F150
G3 X276.469 Y159.239 I-2.25
G1 X267.577 Y146.54
G3 X267.235 Y143.436 I2.663 J-1.864
G2 Y135.999 I-9.012 J-3.719
G3 X267.577 Y132.895 I3.005 J-1.24
G1 X276.469 Y120.195
G3 X280.563 Y121.486 I1.843 J1.291
G1 Y135.286
G3 X280.413 Y135.436 I-0.15 F100
G1 X280.263
G18 G3 X280.113 Z-2.85 K0.15
G0 Z15
G17
M9
G28 G91 X0 Y0
M30
%
