%
(1001)
(T1  D=3 CR=0 TAPER=118deg - ZMIN=-3 - drill)
G90 G94
G17
G21

(Drill1)
M9
T1 M6
S1000 M3
G54
M9
G0 X38.358 Y18.36
Z15
Z7
G1 Z-3 F250
G0 Z7
X63.358 Y21.16
G1 Z-3 F250
G0 Z7
X166.358 Y25.361
G1 Z-3 F250
G0 Z7
X198.358 Y18.361
G1 Z-3 F250
G0 Z7
X252.358
G1 Z-3 F250
G0 Z7
Z15
M9
G28 G91 X0 Y0
M30
%
