%
(1001)
(T1  D=3.14 CR=0 - ZMIN=-3 - flat end mill)
G90 G94
G17
G21

(2D Contour3)
M9
T1 M6
S8000 M3
G54
M9
G0 X250.006 Y91.13
Z15
Z5
G1 Z2.5 F100
Z-1.186
G18 G2 X250.32 Z-1.5 I0.314
G1 X250.634
G17 G3 X250.948 Y91.444 J0.314
G1 Y121.444 F200
G2 X252.518 Y123.014 I1.57
G1 X272.518
G2 X274.088 Y121.444 J-1.57
G1 Y91.444
G2 X272.518 Y89.874 I-1.57
G1 X252.518
G2 X250.948 Y91.444 J1.57
G3 X250.634 Y91.758 I-0.314 F100
G1 X250.32
G18 G3 X250.006 Z-1.186 K0.314
G1 X250.03 Y121.758
G3 X249.716 Z-1.5 I-0.314
G1 X249.402
G17 G3 X249.088 Y121.444 J-0.314
G1 Y91.444 F200
G2 X247.518 Y89.874 I-1.57
G1 X227.518
G2 X225.948 Y91.444 J1.57
G1 Y121.444
G2 X227.518 Y123.014 I1.57
G1 X247.518
G2 X249.088 Y121.444 J-1.57
G3 X249.402 Y121.13 I0.314 F100
G1 X249.716
G18 G2 X250.03 Z-1.186 K0.314
G0 Z5
X275.03 Y121.758
G1 Z1 F100
Z-2.686
G3 X274.716 Z-3 I-0.314
G1 X274.402
G17 G3 X274.088 Y121.444 J-0.314
G1 Y91.444 F200
G2 X272.518 Y89.874 I-1.57
G1 X252.518
G2 X250.948 Y91.444 J1.57
G1 Y121.444
G2 X252.518 Y123.014 I1.57
G1 X272.518
G2 X274.088 Y121.444 J-1.57
G3 X274.402 Y121.13 I0.314 F100
G1 X274.716
G18 G2 X275.03 Z-2.686 K0.314
G1 Z-1.186
X275.006 Y91.13
G2 X275.32 Z-1.5 I0.314
G1 X275.634
G17 G3 X275.948 Y91.444 J0.314
G1 Y121.444 F200
G2 X277.518 Y123.014 I1.57
G1 X297.518
G2 X299.088 Y121.444 J-1.57
G1 Y91.444
G2 X297.518 Y89.874 I-1.57
G1 X277.518
G2 X275.948 Y91.444 J1.57
G3 X275.634 Y91.758 I-0.314 F100
G1 X275.32
G18 G3 X275.006 Z-1.186 K0.314
G1 Y91.13
Z-2.686
G2 X275.32 Z-3 I0.314
G1 X275.634
G17 G3 X275.948 Y91.444 J0.314
G1 Y121.444 F200
G2 X277.518 Y123.014 I1.57
G1 X297.518
G2 X299.088 Y121.444 J-1.57
G1 Y91.444
G2 X297.518 Y89.874 I-1.57
G1 X277.518
G2 X275.948 Y91.444 J1.57
G3 X275.634 Y91.758 I-0.314 F100
G1 X275.32
G18 G3 X275.006 Z-2.686 K0.314
G0 Z5
X250.03 Y121.758
G1 Z1 F100
Z-2.686
G3 X249.716 Z-3 I-0.314
G1 X249.402
G17 G3 X249.088 Y121.444 J-0.314
G1 Y91.444 F200
G2 X247.518 Y89.874 I-1.57
G1 X227.518
G2 X225.948 Y91.444 J1.57
G1 Y121.444
G2 X227.518 Y123.014 I1.57
G1 X247.518
G2 X249.088 Y121.444 J-1.57
G3 X249.402 Y121.13 I0.314 F100
G1 X249.716
G18 G2 X250.03 Z-2.686 K0.314
G0 Z15
G17
M9
G28 G91 X0 Y0
M30
%
