%
(1001)
(T1  D=3.14 CR=0 - ZMIN=-3 - flat end mill)
G90 G94
G17
G21

(Drill1)
M9
T1 M6
S8000 M3
G54
M8
G0 X183.411 Y182.415
Z15
Z7
G1 Z-3 F100
G0 Z7
X189.147 Y174.223
G1 Z-3 F100
G0 Z7
X175.674 Y142.736
G1 Z-3 F100
G0 Z7
X149.008 Y146.118
G1 Z-3 F100
G0 Z7
X143.273 Y154.31
G1 Z-3 F100
G0 Z7
X116.885 Y149.306
G1 Z-3 F100
G0 Z7
Y139.306
G1 Z-3 F100
G0 Z7
X99.33 Y140.121
G1 Z-3 F100
G0 Z7
Y150.121
G1 Z-3 F100
G0 Z7
X72.942 Y155.125
G1 Z-3 F100
G0 Z7
X67.207 Y146.934
G1 Z-3 F100
G0 Z7
X40.541 Y143.551
G1 Z-3 F100
G0 Z7
X27.068 Y175.039
G1 Z-3 F100
G0 Z7
X32.804 Y183.23
G1 Z-3 F100
G0 Z7
X30.748 Y16.609
G1 Z-3 F100
G0 Z7
X110.748
G1 Z-3 F100
G0 Z7
X83.305 Y49.359
G1 Z-3 F100
G0 Z7
X58.19
G1 Z-3 F100
G0 Z7
X70.748 Y71.109
G1 Z-3 F100
G0 Z7
X30.748 Y96.609
G1 Z-3 F100
G0 Z7
X110.748
G1 Z-3 F100
G0 Z7
X173.758 Y83.188
G1 Z-3 F100
G0 Z7
X168.758 Y69.938
G1 Z-3 F100
G0 Z7
X178.758
G1 Z-3 F100
G0 Z7
X156.758 Y33.505
G1 Z-3 F100
G0 Z7
X168.758 Y20.938
G1 Z-3 F100
G0 Z7
X178.758
G1 Z-3 F100
G0 Z7
X190.758 Y33.505
G1 Z-3 F100
G0 Z7
X230.416 Y24.636
G1 Z-3 F100
G0 Z7
X236.271 Y62.253
G1 Z-3 F100
G0 Z7
X290.271
G1 Z-3 F100
G0 Z7
X284.416 Y24.636
G1 Z-3 F100
G0 Z7
Z15
M9
G28 G91 X0 Y0
M30
%
