%
(1001)
(T1  D=3 CR=0 TAPER=118deg - ZMIN=-5.664 - drill)
G90 G94
G17
G21

(Drill2)
M9
T1 M6
S1000 M3
G54
M9
G0 X282.762 Y20.319
Z15
Z7
G1 Z-3 F250
G0 Z7
X230.722 Y102.715
G1 Z-3 F250
G0 Z7
X202.749 Y56.886
G1 Z-3 F250
G0 Z7
X227.722 Y47.715
G1 Z-3 F250
G0 Z7
X255.672 Y40.915
G1 Z-3 F250
G0 Z7
X254.812 Y68.311
G1 Z-3 F250
G0 Z7
X279.762 Y75.319
G1 Z-3 F250
G0 Z7
X282.313 Y105.313
G1 Z-3 F250
G0 Z7
X258.223 Y139.717
G1 Z-3 F250
G0 Z7
X282.313 Y174.122
G1 Z-3 F250
G0 Z7
X255.793 Y176.078
G1 Z-3 F250
G0 Z7
X230.768 Y178.65
G1 Z-3 F250
G0 Z7
X210.988 Y150.554
Z5
Z4.336
G1 Z-5.664 F250
G0 Z5
X194.948 Y128.302
Z4.336
G1 Z-5.664 F250
G0 Z5
Z7
X187.037 Y94.371
G1 Z-3 F250
G0 Z7
X147.016 Y96.506
G1 Z-3 F250
G0 Z7
X149.749 Y59.386
G1 Z-3 F250
G0 Z7
X21.611 Y38.491
G1 Z-3 F250
G0 Z7
X54.749 Y56.885
G1 Z-3 F250
G0 Z7
X94.749 Y59.385
G1 Z-3 F250
G0 Z7
X92.018 Y96.004
G1 Z-3 F250
G0 Z7
X39.043 Y93.021
G1 Z-3 F250
G0 Z7
X34.948 Y128.301
Z5
Z4.336
G1 Z-5.664 F250
G0 Z5
X62.988 Y150.553
Z4.336
G1 Z-5.664 F250
G0 Z5
Z7
X41.802 Y174.127
G1 Z-3 F250
G0 Z7
X21.611 Y186.491
G1 Z-3 F250
G0 Z7
X95.799 Y174.62
G1 Z-3 F250
G0 Z7
X127.734 Y181.911
G1 Z-3 F250
G0 Z7
Z15
M9
G28 G91 X0 Y0
M30
%
