%
(1001)
(T1  D=3.14 CR=0 - ZMIN=-3 - flat end mill)
G90 G94
G17
G21

(2D Contour1)
M9
T1 M6
S8000 M3
G54
M8
G0 X91.425 Y77.303
Z15
Z5
G1 Z2.6 F100
Z-1.286
X91.431 Y77.298 Z-1.356
X91.447 Y77.281 Z-1.422
X91.474 Y77.255 Z-1.482
X91.509 Y77.22 Z-1.531
X91.551 Y77.178 Z-1.569
X91.598 Y77.131 Z-1.592
X91.647 Y77.081 Z-1.6
X91.869 Y76.859
G3 X92.313 I0.222 J0.222
G1 X102.92 Y87.466 F200
G3 Y88.781 I-0.657 J0.658
X101.605 I-0.658 J-0.657
G1 X90.998 Y78.175
G3 X92.313 Y76.859 I0.658 J-0.658
Y77.303 I-0.222 J0.222 F100
G1 X92.091 Y77.525
X92.042 Y77.575 Z-1.592
X91.995 Y77.622 Z-1.569
X91.953 Y77.664 Z-1.531
X91.918 Y77.699 Z-1.482
X91.891 Y77.725 Z-1.422
X91.875 Y77.742 Z-1.356
X91.869 Y77.747 Z-1.286
X91.425 Y77.303
Z-2.686
X91.431 Y77.298 Z-2.756
X91.447 Y77.281 Z-2.822
X91.474 Y77.255 Z-2.882
X91.509 Y77.22 Z-2.931
X91.551 Y77.178 Z-2.969
X91.598 Y77.131 Z-2.992
X91.647 Y77.081 Z-3
X91.869 Y76.859
G3 X92.313 I0.222 J0.222
G1 X102.92 Y87.466 F200
G3 Y88.781 I-0.657 J0.658
X101.605 I-0.658 J-0.657
G1 X90.998 Y78.175
G3 X92.313 Y76.859 I0.658 J-0.658
Y77.303 I-0.222 J0.222 F100
G1 X92.091 Y77.525
X92.042 Y77.575 Z-2.992
X91.995 Y77.622 Z-2.969
X91.953 Y77.664 Z-2.931
X91.918 Y77.699 Z-2.882
X91.891 Y77.725 Z-2.822
X91.875 Y77.742 Z-2.756
X91.869 Y77.747 Z-2.686
G0 Z5
X70.434 Y69.621
G1 Z2.6 F100
Z-1.286
G19 G2 Y69.307 Z-1.6 J-0.314
G1 Y68.993
G17 G3 X70.748 Y68.679 I0.314
G2 Y44.539 J-12.07 F200
X62.213 Y48.074 J12.07
X58.678 Y56.609 I8.535 J8.535
X70.748 Y68.679 I12.07
G3 X71.062 Y68.993 J0.314 F100
G1 Y69.307
G19 G3 Y69.621 Z-1.286 K0.314
G1 X70.434
Z-2.686
G2 Y69.307 Z-3 J-0.314
G1 Y68.993
G17 G3 X70.748 Y68.679 I0.314
G2 Y44.539 J-12.07 F200
X62.213 Y48.074 J12.07
X58.678 Y56.609 I8.535 J8.535
X70.748 Y68.679 I12.07
G3 X71.062 Y68.993 J0.314 F100
G1 Y69.307
G19 G3 Y69.621 Z-2.686 K0.314
G0 Z5
X50.053 Y77.286
G1 Z2.6 F100
Z-1.286
X50.059 Y77.292 Z-1.356
X50.075 Y77.308 Z-1.422
X50.102 Y77.335 Z-1.482
X50.137 Y77.37 Z-1.531
X50.179 Y77.412 Z-1.569
X50.226 Y77.459 Z-1.592
X50.275 Y77.508 Z-1.6
X50.497 Y77.73
G17 G3 Y78.175 I-0.222 J0.222
G1 X39.891 Y88.781 F200
G3 X38.575 Y87.466 I-0.658 J-0.658
G1 X49.182 Y76.859
G3 X50.497 Y78.175 I0.658 J0.658
X50.053 I-0.222 J-0.222 F100
G1 X49.831 Y77.952
X49.782 Y77.903 Z-1.592
X49.735 Y77.856 Z-1.569
X49.693 Y77.814 Z-1.531
X49.657 Y77.779 Z-1.482
X49.631 Y77.752 Z-1.422
X49.615 Y77.736 Z-1.356
X49.609 Y77.73 Z-1.286
X50.053 Y77.286
Z-2.686
X50.059 Y77.292 Z-2.756
X50.075 Y77.308 Z-2.822
X50.102 Y77.335 Z-2.882
X50.137 Y77.37 Z-2.931
X50.179 Y77.412 Z-2.969
X50.226 Y77.459 Z-2.992
X50.275 Y77.508 Z-3
X50.497 Y77.73
G3 Y78.175 I-0.222 J0.222
G1 X39.891 Y88.781 F200
G3 X38.575 Y87.466 I-0.658 J-0.658
G1 X49.182 Y76.859
G3 X50.497 Y78.175 I0.658 J0.658
X50.053 I-0.222 J-0.222 F100
G1 X49.831 Y77.953
X49.782 Y77.903 Z-2.992
X49.735 Y77.856 Z-2.969
X49.693 Y77.814 Z-2.931
X49.657 Y77.779 Z-2.882
X49.631 Y77.752 Z-2.822
X49.615 Y77.736 Z-2.756
X49.609 Y77.73 Z-2.686
G0 Z5
X50.053 Y35.47
G1 Z2.6 F100
Z-1.286
X50.059 Y35.476 Z-1.356
X50.075 Y35.492 Z-1.422
X50.102 Y35.519 Z-1.482
X50.137 Y35.554 Z-1.531
X50.179 Y35.596 Z-1.569
X50.226 Y35.643 Z-1.592
X50.275 Y35.692 Z-1.6
X50.497 Y35.914
G3 Y36.358 I-0.222 J0.222
X49.182 I-0.658 J-0.658 F200
G1 X38.575 Y25.752
G3 Y24.436 I0.658 J-0.658
X39.891 I0.658 J0.658
G1 X50.497 Y35.043
G3 Y36.358 I-0.658 J0.658
X50.053 I-0.222 J-0.222 F100
G1 X49.831 Y36.136
X49.782 Y36.087 Z-1.592
X49.735 Y36.04 Z-1.569
X49.693 Y35.998 Z-1.531
X49.657 Y35.963 Z-1.482
X49.631 Y35.936 Z-1.422
X49.615 Y35.92 Z-1.356
X49.609 Y35.914 Z-1.286
X50.053 Y35.47
Z-2.686
X50.059 Y35.476 Z-2.756
X50.075 Y35.492 Z-2.822
X50.102 Y35.519 Z-2.882
X50.137 Y35.554 Z-2.931
X50.179 Y35.596 Z-2.969
X50.226 Y35.643 Z-2.992
X50.275 Y35.692 Z-3
X50.497 Y35.914
G3 Y36.358 I-0.222 J0.222
X49.182 I-0.658 J-0.658 F200
G1 X38.575 Y25.752
G3 Y24.436 I0.658 J-0.658
X39.891 I0.658 J0.658
G1 X50.497 Y35.043
G3 Y36.358 I-0.658 J0.658
X50.053 I-0.222 J-0.222 F100
G1 X49.831 Y36.136
X49.782 Y36.087 Z-2.992
X49.735 Y36.04 Z-2.969
X49.693 Y35.998 Z-2.931
X49.657 Y35.963 Z-2.882
X49.631 Y35.936 Z-2.822
X49.615 Y35.92 Z-2.756
X49.609 Y35.914 Z-2.686
G0 Z5
X91.901 Y35.505
G1 Z2.6 F100
Z-1.286
X91.906 Y35.511 Z-1.356
X91.92 Y35.53 Z-1.422
X91.942 Y35.56 Z-1.482
X91.972 Y35.6 Z-1.531
X92.007 Y35.648 Z-1.569
X92.046 Y35.701 Z-1.592
X92.088 Y35.758 Z-1.6
X92.274 Y36.01
G3 X92.207 Y36.449 I-0.253 J0.186
X90.998 Y35.043 I-0.552 J-0.749 F200
G1 X101.605 Y24.437
G3 X102.92 Y25.752 I0.657 J0.658
G1 X92.313 Y36.358
G3 X92.207 Y36.449 I-0.658 J-0.658
X91.768 Y36.383 I-0.186 J-0.253 F100
G1 X91.582 Y36.13
X91.541 Y36.074 Z-1.592
X91.501 Y36.02 Z-1.569
X91.466 Y35.972 Z-1.531
X91.436 Y35.932 Z-1.482
X91.414 Y35.902 Z-1.422
X91.4 Y35.884 Z-1.356
X91.396 Y35.877 Z-1.286
X91.901 Y35.505
Z-2.686
X91.906 Y35.511 Z-2.756
X91.92 Y35.53 Z-2.822
X91.942 Y35.56 Z-2.882
X91.972 Y35.6 Z-2.931
X92.007 Y35.648 Z-2.969
X92.046 Y35.701 Z-2.992
X92.088 Y35.758 Z-3
X92.274 Y36.01
G3 X92.207 Y36.449 I-0.253 J0.186
X90.998 Y35.043 I-0.552 J-0.749 F200
G1 X101.605 Y24.437
G3 X102.92 Y25.752 I0.657 J0.658
G1 X92.313 Y36.358
G3 X92.207 Y36.449 I-0.658 J-0.658
X91.768 Y36.383 I-0.186 J-0.253 F100
G1 X91.582 Y36.13
X91.541 Y36.074 Z-2.992
X91.501 Y36.02 Z-2.969
X91.466 Y35.972 Z-2.931
X91.436 Y35.932 Z-2.882
X91.414 Y35.902 Z-2.822
X91.4 Y35.884 Z-2.756
X91.396 Y35.877 Z-2.686
G0 Z5
X181.246 Y55.124
G1 Z2.6 F100
Z-1.286
G18 G2 X181.56 Z-1.6 I0.314
G1 X181.874
G17 G3 X182.188 Y55.438 J0.314
G1 Y63.868 F200
X165.328
Y27.008
X182.188
Y55.438
G3 X181.874 Y55.752 I-0.314 F100
G1 X181.56
G18 G3 X181.246 Z-1.286 K0.314
G1 Y55.124
Z-2.686
G2 X181.56 Z-3 I0.314
G1 X181.874
G17 G3 X182.188 Y55.438 J0.314
G1 Y63.868 F200
X165.328
Y27.008
X182.188
Y55.438
G3 X181.874 Y55.752 I-0.314 F100
G1 X181.56
G18 G3 X181.246 Z-2.686 K0.314
G0 Z5
X180.715 Y174.041
G1 Z2.6 F100
Z-1.286
X180.722 Y174.045 Z-1.356
X180.741 Y174.058 Z-1.422
X180.771 Y174.08 Z-1.482
X180.812 Y174.108 Z-1.531
X180.861 Y174.143 Z-1.569
X180.915 Y174.181 Z-1.592
X180.973 Y174.221 Z-1.6
X181.23 Y174.401
G17 G3 X181.307 Y174.838 I-0.18 J0.257
G1 X176.471 Y181.743 F200
X146.278 Y160.601
X155.949 Y146.791
X186.142 Y167.933
X181.307 Y174.838
G3 X180.87 Y174.915 I-0.257 J-0.18 F100
G1 X180.612 Y174.735
X180.555 Y174.695 Z-1.592
X180.501 Y174.657 Z-1.569
X180.452 Y174.623 Z-1.531
X180.411 Y174.594 Z-1.482
X180.381 Y174.573 Z-1.422
X180.362 Y174.56 Z-1.356
X180.355 Y174.555 Z-1.286
X180.715 Y174.041
Z-2.686
X180.722 Y174.045 Z-2.756
X180.741 Y174.058 Z-2.822
X180.771 Y174.08 Z-2.882
X180.812 Y174.108 Z-2.931
X180.861 Y174.143 Z-2.969
X180.915 Y174.181 Z-2.992
X180.973 Y174.221 Z-3
X181.23 Y174.401
G3 X181.307 Y174.838 I-0.18 J0.257
G1 X176.471 Y181.743 F200
X146.278 Y160.601
X155.949 Y146.791
X186.142 Y167.933
X181.307 Y174.838
G3 X180.87 Y174.915 I-0.257 J-0.18 F100
G1 X180.612 Y174.735
X180.555 Y174.695 Z-2.992
X180.501 Y174.657 Z-2.969
X180.452 Y174.623 Z-2.931
X180.411 Y174.594 Z-2.882
X180.381 Y174.573 Z-2.822
X180.362 Y174.56 Z-2.756
X180.355 Y174.555 Z-2.686
G0 Z5
X64.15 Y154.794
G1 Z2.6 F100
Z-1.286
X64.157 Y154.79 Z-1.356
X64.176 Y154.776 Z-1.422
X64.207 Y154.755 Z-1.482
X64.247 Y154.726 Z-1.531
X64.296 Y154.692 Z-1.569
X64.35 Y154.654 Z-1.592
X64.408 Y154.614 Z-1.6
X64.665 Y154.434
G3 X65.102 Y154.511 I0.18 J0.257
G1 X69.937 Y161.416 F200
X39.743 Y182.558
X30.073 Y168.748
X60.267 Y147.606
X65.102 Y154.511
G3 X65.025 Y154.948 I-0.257 J0.18 F100
G1 X64.768 Y155.128
X64.711 Y155.168 Z-1.592
X64.656 Y155.207 Z-1.569
X64.607 Y155.241 Z-1.531
X64.567 Y155.269 Z-1.482
X64.536 Y155.291 Z-1.422
X64.517 Y155.304 Z-1.356
X64.511 Y155.309 Z-1.286
X64.15 Y154.794
Z-2.686
X64.157 Y154.79 Z-2.756
X64.176 Y154.776 Z-2.822
X64.207 Y154.755 Z-2.882
X64.247 Y154.726 Z-2.931
X64.296 Y154.692 Z-2.969
X64.35 Y154.654 Z-2.992
X64.408 Y154.614 Z-3
X64.665 Y154.434
G3 X65.102 Y154.511 I0.18 J0.257
G1 X69.937 Y161.416 F200
X39.743 Y182.558
X30.073 Y168.748
X60.267 Y147.606
X65.102 Y154.511
G3 X65.025 Y154.948 I-0.257 J0.18 F100
G1 X64.768 Y155.128
X64.711 Y155.168 Z-2.992
X64.656 Y155.207 Z-2.969
X64.607 Y155.241 Z-2.931
X64.567 Y155.269 Z-2.882
X64.536 Y155.291 Z-2.822
X64.517 Y155.304 Z-2.756
X64.511 Y155.309 Z-2.686
G0 Z15
M9
G28 G91 X0 Y0
M30
%
