%
(1001)
(T2  D=1.5 CR=0 - ZMIN=-3 - flat end mill)
G90 G94
G17
G21

(2D Contour3)
M9
T2 M6
S8000 M3
G54
M8
G0 X36.879 Y28.453
Z15
Z5
G1 Z2.5 F100
Z-1.35
X36.88 Y28.446 Z-1.396
X36.883 Y28.425 Z-1.438
X36.887 Y28.392 Z-1.471
X36.893 Y28.351 Z-1.493
X36.899 Y28.305 Z-1.5
X36.918 Y28.156
G3 X37.087 Y28.027 I0.149 J0.02
G1 X41.539 Y28.605
X45.993 Y29.167
X50.449 Y29.714
X54.907 Y30.246
X59.366 Y30.762
X63.828 Y31.263
X68.291 Y31.749
X72.756 Y32.219
X77.222 Y32.674
X81.69 Y33.113
X86.159 Y33.537
X90.63 Y33.945
X95.102 Y34.339
X99.576 Y34.716
X104.051 Y35.078
X108.527 Y35.425
X113.004 Y35.756
X117.482 Y36.072
X121.962 Y36.372
X126.442 Y36.657
X130.923 Y36.927
X135.406 Y37.181
X139.889 Y37.419
X144.373 Y37.642
X148.857 Y37.85
X153.343 Y38.042
X157.829 Y38.218
X162.315 Y38.379
X166.802 Y38.525
X171.29 Y38.655
X175.778 Y38.77
X180.266 Y38.869
X184.755 Y38.953
X189.244 Y39.021
X193.733 Y39.073
X198.222 Y39.11
G2 X205.371 Y37.89 I0.137 J-20.75
G3 X253.553 Y25.005 I101.134 J281.643
G2 X258.947 Y16.894 I-1.195 J-6.643
X250.621 Y11.839 I-6.589 J1.467
G3 X202.55 Y8.462 I-19.114 J-71.748
G2 X192.891 Y9.106 I-4.192 J9.899
G3 X186.514 Y11.06 I-7.249 J-12.269
X39.273 Y8.653 I-58.15 J-947.467
G2 X37.087 Y28.027 I-0.915 J9.707
G3 X37.216 Y28.195 I-0.02 J0.149
G1 X37.196 Y28.344
X37.19 Y28.39 Z-1.493
X37.185 Y28.431 Z-1.471
X37.18 Y28.464 Z-1.438
X37.178 Y28.485 Z-1.396
X37.177 Y28.492 Z-1.35
X36.879 Y28.453
Z-2.85
X36.88 Y28.446 Z-2.896
X36.883 Y28.425 Z-2.938
X36.887 Y28.392 Z-2.971
X36.893 Y28.351 Z-2.993
X36.899 Y28.305 Z-3
X36.918 Y28.156
G3 X37.087 Y28.027 I0.149 J0.02
G1 X40.746 Y28.503
X44.407 Y28.969
X48.07 Y29.424
X51.733 Y29.869
X55.398 Y30.304
Z-2.5
X58.875 Y30.706
Z-3
X62.95 Y31.166
X67.026 Y31.613
X71.103 Y32.047
X75.182 Y32.468
X79.262 Y32.876
X83.344 Y33.272
X87.426 Y33.654
X91.51 Y34.024
X95.595 Y34.381
Z-2.5
X99.083 Y34.675
Z-3
X103.17 Y35.008
X107.258 Y35.328
X111.347 Y35.635
X115.437 Y35.93
X119.528 Y36.211
X123.62 Y36.48
X127.712 Y36.735
X131.806 Y36.978
X135.9 Y37.208
Z-2.5
X139.395 Y37.394
Z-3
X143.49 Y37.6
X147.586 Y37.792
X151.683 Y37.973
X155.78 Y38.14
X159.878 Y38.294
X163.976 Y38.435
X168.075 Y38.563
X172.174 Y38.679
X176.273 Y38.781
Z-2.5
X179.772 Y38.859
Z-3
X183.462 Y38.93
X187.152 Y38.991
X190.842 Y39.041
X194.532 Y39.081
X198.222 Y39.11
G2 X205.371 Y37.89 I0.137 J-20.75
G3 X227.504 Y30.899 I101.134 J281.643
G1 Z-2.5
G3 X230.885 Y29.995 I79.002 J288.634
G1 Z-3
G3 X253.553 Y25.005 I75.621 J289.538
G2 X258.947 Y16.894 I-1.195 J-6.643
X250.621 Y11.839 I-6.589 J1.467
G3 X228.052 Y14.261 I-19.114 J-71.748
G1 Z-2.5
G3 X224.56 Y14.015 I3.455 J-74.17
G1 Z-3
G3 X202.55 Y8.462 I6.947 J-73.924
G2 X192.891 Y9.106 I-4.192 J9.899
G3 X186.514 Y11.06 I-7.249 J-12.269
X169.862 Y11.935 I-58.15 J-947.467
G1 Z-2.5
G3 X166.365 Y12.082 I-41.498 J-948.342
G1 Z-3
G3 X133.023 Y12.832 I-38.001 J-948.489
G1 Z-2.5
G3 X129.523 Y12.842 I-4.659 J-949.239
G1 Z-3
G3 X96.177 Y12.297 I-1.159 J-949.249
G1 Z-2.5
G3 X92.679 Y12.172 I32.187 J-948.704
G1 Z-3
G3 X59.379 Y10.333 I35.685 J-948.579
G1 Z-2.5
G3 X55.889 Y10.072 I68.985 J-946.74
G1 Z-3
G3 X39.273 Y8.653 I72.475 J-946.479
G2 X37.087 Y28.027 I-0.915 J9.707
G3 X37.216 Y28.195 I-0.02 J0.149
G1 X37.196 Y28.344
X37.19 Y28.39 Z-2.993
X37.185 Y28.431 Z-2.971
X37.18 Y28.464 Z-2.938
X37.178 Y28.485 Z-2.896
X37.177 Y28.492 Z-2.85
G0 Z15
M9
G28 G91 X0 Y0
M30
%
