%
(1001)
(T2  D=1.5 CR=0 - ZMIN=-3 - flat end mill)
G90 G94
G17
G21

(2D Contour7)
M9
T2 M6
S8000 M3
G54
M9
G0 X182.618 Y143.854
Z15
Z5
G1 Z2.5 F100
Z-1.35
G19 G3 Y144.004 Z-1.5 J0.15
G1 Y144.154
G17 G3 X182.468 Y144.304 I-0.15
G1 X75.468 Y144.303 F150
G3 X68.058 Y142.225 I-0.001 J-14.25
G2 X57.918 Y158.882 I-5.07 J8.328
X68.058 I5.07 J-8.328
G3 X75.468 Y156.803 I7.411 J12.171
G1 X198.508 Y156.804
G3 X205.918 Y158.883 I-0.001 J14.25
G2 X216.058 Y142.226 I5.07 J-8.328
X205.918 I-5.07 J8.328
G3 X198.508 Y144.304 I-7.409 J-12.173
G1 X194.96
X182.468
G3 X182.318 Y144.154 J-0.15 F100
G1 Y144.004
G19 G2 Y143.854 Z-1.35 K0.15
G1 X182.618
Z-2.85
G3 Y144.004 Z-3 J0.15
G1 Y144.154
G17 G3 X182.468 Y144.304 I-0.15
G1 X75.468 Y144.303 F150
G3 X68.058 Y142.225 I-0.001 J-14.25
G2 X57.918 Y158.882 I-5.07 J8.328
X68.058 I5.07 J-8.328
G3 X75.468 Y156.803 I7.411 J12.171
G1 X198.508 Y156.804
G3 X205.918 Y158.883 I-0.001 J14.25
G2 X216.058 Y142.226 I5.07 J-8.328
X205.918 I-5.07 J8.328
G3 X198.508 Y144.304 I-7.409 J-12.173
G1 X194.96
X182.468
G3 X182.318 Y144.154 J-0.15 F100
G1 Y144.004
G19 G2 Y143.854 Z-2.85 K0.15
G1 Z-1.35
X183.768 Y135.063
X183.769 Y135.055 Z-1.396
X183.771 Y135.034 Z-1.438
X183.775 Y135.001 Z-1.471
X183.779 Y134.96 Z-1.493
X183.784 Y134.913 Z-1.5
X183.8 Y134.764
G17 G3 X183.965 Y134.631 I0.149 J0.016
X189.878 Y136.631 I-1.497 J14.171 F150
G2 X200.018 Y119.974 I5.07 J-8.328
X189.878 I-5.07 J8.328
G3 X182.468 Y122.052 I-7.409 J-12.173
G1 X47.428 Y122.051
G3 X40.018 Y119.973 I-0.001 J-14.25
G2 X29.878 Y136.63 I-5.07 J8.328
X40.018 I5.07 J-8.328
G3 X47.428 Y134.551 I7.411 J12.171
G1 X182.468 Y134.552
G3 X183.965 Y134.631 I-0.001 J14.25
X184.098 Y134.796 I-0.016 J0.149 F100
G1 X184.082 Y134.945
X184.077 Y134.991 Z-1.493
X184.073 Y135.033 Z-1.471
X184.069 Y135.066 Z-1.438
X184.067 Y135.087 Z-1.396
X184.066 Y135.094 Z-1.35
X183.768 Y135.063
Z-2.85
X183.769 Y135.055 Z-2.896
X183.771 Y135.034 Z-2.938
X183.775 Y135.001 Z-2.971
X183.779 Y134.96 Z-2.993
X183.784 Y134.913 Z-3
X183.8 Y134.764
G3 X183.965 Y134.631 I0.149 J0.016
X189.878 Y136.631 I-1.497 J14.171 F150
G2 X200.018 Y119.974 I5.07 J-8.328
X189.878 I-5.07 J8.328
G3 X182.468 Y122.052 I-7.409 J-12.173
G1 X47.428 Y122.051
G3 X40.018 Y119.973 I-0.001 J-14.25
G2 X29.878 Y136.63 I-5.07 J8.328
X40.018 I5.07 J-8.328
G3 X47.428 Y134.551 I7.411 J12.171
G1 X182.468 Y134.552
G3 X183.965 Y134.631 I-0.001 J14.25
X184.098 Y134.796 I-0.016 J0.149 F100
G1 X184.082 Y134.945
X184.077 Y134.991 Z-2.993
X184.073 Y135.033 Z-2.971
X184.069 Y135.066 Z-2.938
X184.067 Y135.087 Z-2.896
X184.066 Y135.094 Z-2.85
G0 Z15
M9
G28 G91 X0 Y0
M30
%
