%
(1001)
(T2  D=1.5 CR=0 - ZMIN=-3 - flat end mill)
G90 G94
G17
G21

(2D Contour5)
M9
T2 M6
S8000 M3
G54
M9
G0 X157.71 Y169.181
Z15
Z5
G1 Z2.5 F100
Z-1.35
Y169.189 Z-1.396
Y169.21 Z-1.438
X157.709 Y169.243 Z-1.471
X157.708 Y169.285 Z-1.493
Y169.331 Z-1.5
X157.705 Y169.481
G3 X157.552 Y169.628 I-0.15 J-0.003
X107.71 Y167.427 I16.953 J-949.099 F150
X101.352 Y165.415 I1.002 J-14.214
G2 X91.698 Y164.683 I-5.553 J9.205
G3 X43.599 Y167.621 I-28.332 J-68.632
G2 X35.227 Y172.6 I-1.797 J6.506
X40.547 Y180.76 I6.575 J1.527
G3 X88.609 Y194.084 I-55.633 J294.033
G2 X95.746 Y195.369 I7.19 J-19.464
G1 X100.236 Y195.373
X104.725 Y195.361
X109.214 Y195.334
X113.704 Y195.291
X118.193 Y195.233
X122.681 Y195.159
X127.17 Y195.07
X131.658 Y194.966
X136.146 Y194.846
X140.634 Y194.71
X145.12 Y194.559
X149.607 Y194.392
X154.093 Y194.21
X158.578 Y194.013
X163.062 Y193.8
X167.546 Y193.571
X172.028 Y193.327
X176.51 Y193.068
X180.991 Y192.793
X185.471 Y192.502
X189.95 Y192.197
X194.428 Y191.875
X198.905 Y191.538
X203.381 Y191.186
X207.855 Y190.819
X212.328 Y190.436
X216.8 Y190.037
X221.27 Y189.623
X225.739 Y189.194
X230.207 Y188.749
X234.672 Y188.289
X239.137 Y187.813
X243.599 Y187.322
X248.06 Y186.816
X252.519 Y186.294
X256.976 Y185.756
G2 X254.966 Y166.364 I-1.183 J-9.678
G3 X157.552 Y169.628 I-80.461 J-945.834
X157.405 Y169.476 I0.003 J-0.15 F100
G1 X157.408 Y169.326
X157.409 Y169.28 Z-1.493
Y169.238 Z-1.471
X157.41 Y169.205 Z-1.438
Y169.183 Z-1.396
Y169.176 Z-1.35
G0 Z5
X255.078 Y165.903
G1 Z1 F100
Z-2.85
Y165.91 Z-2.896
X255.08 Y165.931 Z-2.938
X255.083 Y165.964 Z-2.971
X255.086 Y166.006 Z-2.993
X255.09 Y166.052 Z-3
X255.103 Y166.202
G3 X254.966 Y166.364 I-0.149 J0.013
X107.71 Y167.427 I-80.461 J-945.834 F150
X101.352 Y165.415 I1.002 J-14.214
G2 X91.698 Y164.683 I-5.553 J9.205
G3 X43.599 Y167.621 I-28.332 J-68.632
G2 X35.227 Y172.6 I-1.797 J6.506
X40.547 Y180.76 I6.575 J1.527
G3 X88.609 Y194.084 I-55.633 J294.033
G2 X95.746 Y195.369 I7.19 J-19.464
G1 X100.236 Y195.373
X104.725 Y195.361
X109.214 Y195.334
X113.704 Y195.291
X118.193 Y195.233
X122.681 Y195.159
X127.17 Y195.07
X131.658 Y194.966
X136.146 Y194.846
X140.634 Y194.71
X145.12 Y194.559
X149.607 Y194.392
X154.093 Y194.21
X158.578 Y194.013
X163.062 Y193.8
X167.546 Y193.571
X172.028 Y193.327
X176.51 Y193.068
X180.991 Y192.793
X185.471 Y192.502
X189.95 Y192.197
X194.428 Y191.875
X198.905 Y191.538
X203.381 Y191.186
X207.855 Y190.819
X212.328 Y190.436
X216.8 Y190.037
X221.27 Y189.623
X225.739 Y189.194
X230.207 Y188.749
X234.672 Y188.289
X239.137 Y187.813
X243.599 Y187.322
X248.06 Y186.816
X252.519 Y186.294
X256.976 Y185.756
G2 X254.966 Y166.364 I-1.183 J-9.678
G3 X254.804 Y166.227 I-0.013 J-0.149 F100
G1 X254.791 Y166.077
X254.788 Y166.031 Z-2.993
X254.784 Y165.99 Z-2.971
X254.781 Y165.957 Z-2.938
X254.779 Y165.935 Z-2.896
Y165.928 Z-2.85
G0 Z5
X283.138 Y95.145
G1 Z2.5 F100
Z-1.35
X283.137 Y95.153 Z-1.396
X283.136 Y95.174 Z-1.438
X283.134 Y95.207 Z-1.471
X283.131 Y95.249 Z-1.493
X283.128 Y95.295 Z-1.5
X283.118 Y95.445
G3 X282.958 Y95.584 I-0.15 J-0.01
G2 X273.087 Y108.465 I-0.645 J9.729 F150
G1 X258.029 Y129.969
G2 Y149.465 I0.194 J9.748
G1 X273.087 Y170.97
G2 X283.813 Y183.756 I9.227 J3.152
X290.063 Y168.205 I-1.499 J-9.634
G1 Y111.23
G2 X283.813 Y95.679 I-7.75 J-5.916
X282.958 Y95.584 I-1.499 J9.634
G3 X282.818 Y95.425 I0.01 J-0.15 F100
G1 X282.828 Y95.275
X282.831 Y95.229 Z-1.493
X282.834 Y95.187 Z-1.471
X282.836 Y95.154 Z-1.438
X282.838 Y95.133 Z-1.396
Y95.125 Z-1.35
X283.138 Y95.145
Z-2.85
X283.137 Y95.153 Z-2.896
X283.136 Y95.174 Z-2.938
X283.134 Y95.207 Z-2.971
X283.131 Y95.249 Z-2.993
X283.128 Y95.295 Z-3
X283.118 Y95.445
G3 X282.958 Y95.584 I-0.15 J-0.01
G2 X273.087 Y108.465 I-0.645 J9.729 F150
G1 X258.029 Y129.969
G2 Y149.465 I0.194 J9.748
G1 X273.087 Y170.97
G2 X283.813 Y183.756 I9.227 J3.152
X290.063 Y168.205 I-1.499 J-9.634
G1 Y111.23
G2 X283.813 Y95.679 I-7.75 J-5.916
X282.958 Y95.584 I-1.499 J9.634
G3 X282.818 Y95.425 I0.01 J-0.15 F100
G1 X282.828 Y95.275
X282.831 Y95.229 Z-2.993
X282.834 Y95.187 Z-2.971
X282.836 Y95.154 Z-2.938
X282.838 Y95.133 Z-2.896
Y95.125 Z-2.85
G0 Z5
X22.438 Y196.658
G1 Z2.5 F100
Z-1.35
X22.437 Y196.651 Z-1.396
X22.435 Y196.63 Z-1.438
X22.432 Y196.597 Z-1.471
X22.428 Y196.555 Z-1.493
X22.424 Y196.509 Z-1.5
X22.409 Y196.36
G3 X22.544 Y196.196 I0.149 J-0.014
G2 X29.411 Y180.641 I-0.933 J-9.705 F150
G1 X22.211 Y171.041
G3 X19.361 Y162.491 I11.4 J-8.55
G1 Y62.491
G3 X22.211 Y53.941 I14.25
G1 X29.411 Y44.341
G2 X13.811 Y32.641 I-7.8 J-5.85
X12.15 Y36.138 I7.8 J5.85
G1 X7.327 Y55.527
G2 X6.861 Y59.328 I15.284 J3.802
G1 Y165.654
G2 X7.327 Y169.455 I15.75 J-0.001
G1 X12.15 Y188.844
G2 X22.544 Y196.196 I9.462 J-2.353
G3 X22.708 Y196.331 I0.014 J0.149 F100
G1 X22.722 Y196.48
X22.727 Y196.527 Z-1.493
X22.731 Y196.568 Z-1.471
X22.734 Y196.601 Z-1.438
X22.736 Y196.622 Z-1.396
X22.737 Y196.63 Z-1.35
X22.438 Y196.658
Z-2.85
X22.437 Y196.651 Z-2.896
X22.435 Y196.63 Z-2.938
X22.432 Y196.597 Z-2.971
X22.428 Y196.555 Z-2.993
X22.424 Y196.509 Z-3
X22.409 Y196.36
G3 X22.544 Y196.196 I0.149 J-0.014
G2 X29.411 Y180.641 I-0.933 J-9.705 F150
G1 X22.211 Y171.041
G3 X19.361 Y162.491 I11.4 J-8.55
G1 Y62.491
G3 X22.211 Y53.941 I14.25
G1 X29.411 Y44.341
G2 X13.811 Y32.641 I-7.8 J-5.85
X12.15 Y36.138 I7.8 J5.85
G1 X7.327 Y55.527
G2 X6.861 Y59.328 I15.284 J3.802
G1 Y165.654
G2 X7.327 Y169.455 I15.75 J-0.001
G1 X12.15 Y188.844
G2 X22.544 Y196.196 I9.462 J-2.353
G3 X22.708 Y196.331 I0.014 J0.149 F100
G1 X22.722 Y196.48
X22.727 Y196.527 Z-2.993
X22.731 Y196.568 Z-2.971
X22.734 Y196.601 Z-2.938
X22.736 Y196.622 Z-2.896
X22.737 Y196.63 Z-2.85
G0 Z15
M9
G28 G91 X0 Y0
M30
%
